svg/alpha_y.svg

<svg xmlns="http://www.w3.org/2000/svg" viewBox="0 0 24 24"><path d="m9 7 2 6v4h2v-4l2-6h-2l-1 3-1-3z"/></svg>

<?xml version="1.0" encoding="UTF-8"?><!DOCTYPE svg PUBLIC "-//W3C//DTD SVG 1.1//EN" "http://www.w3.org/Graphics/SVG/1.1/DTD/svg11.dtd"><svg xmlns="http://www.w3.org/2000/svg" xmlns:xlink="http://www.w3.org/1999/xlink" version="1.1" id="mdi-alpha-y" width="24" height="24" viewBox="0 0 24 24"><path d="M9,7L11,13V17H13V13L15,7H13L12,10L11,7H9Z" /></svg>
